src/assets/img/amazon/icon-amazon.svg

<?xml version="1.0" encoding="utf-8"?>
<!-- Generator: Adobe Illustrator 20.1.0, SVG Export Plug-In . SVG Version: 6.00 Build 0)  -->
<svg version="1.1" id="Card" xmlns="http://www.w3.org/2000/svg" xmlns:xlink="http://www.w3.org/1999/xlink" x="0px" y="0px"
	 viewBox="0 0 40 40" style="enable-background:new 0 0 40 40;" xml:space="preserve">
<style type="text/css">
	.st0{fill:#221F1F;}
	.st1{fill:#FF9900;}
</style>
<path id="a" class="st0" d="M26.4,23c-0.5-0.7-1-1.2-1-2.5v-4.2c0-1.8,0.1-3.4-1.2-4.7c-1-1-2.8-1.4-4.1-1.4c-2.6,0-5.5,1-6.1,4.2
	c-0.1,0.3,0.2,0.5,0.4,0.6l2.6,0.3c0.2,0,0.4-0.3,0.5-0.5c0.2-1.1,1.1-1.6,2.2-1.6c0.6,0,1.2,0.2,1.5,0.7c0.4,0.6,0.3,1.3,0.3,2v0.4
	c-1.6,0.2-3.6,0.3-5.1,0.9c-1.7,0.7-2.9,2.2-2.9,4.4c0,2.8,1.8,4.2,4.1,4.2c1.9,0,3-0.5,4.5-2c0.5,0.7,0.7,1.1,1.6,1.8
	c0.2,0.1,0.5,0.1,0.6-0.1l0,0c0.5-0.5,1.5-1.3,2.1-1.8C26.6,23.6,26.5,23.3,26.4,23z M21,21.8c-0.4,0.8-1.1,1.2-1.9,1.2
	c-1,0-1.7-0.8-1.7-2c0-2.3,2.1-2.7,4-2.7v0.6C21.5,20,21.5,20.9,21,21.8z"/>
<g id="arrow">
	<path id="path8" class="st1" d="M29.6,27.7c-2.6,1.9-6.4,3-9.7,3c-4.6,0-8.7-1.7-11.8-4.5c-0.2-0.2,0-0.5,0.3-0.4
		c3.4,2,7.5,3.1,11.8,3.1c2.9,0,6.1-0.6,9-1.8C29.7,26.9,30.1,27.3,29.6,27.7"/>
	<path id="path10" class="st1" d="M30.7,26.4c-0.3-0.4-2.2-0.2-3.1-0.1c-0.3,0-0.3-0.2-0.1-0.4c1.5-1.1,3.9-0.7,4.2-0.4
		c0.3,0.4-0.1,2.8-1.5,4c-0.2,0.2-0.4,0.1-0.3-0.2C30.4,28.6,31.1,26.9,30.7,26.4"/>
</g>
</svg>

<?xml version="1.0" encoding="UTF-8" standalone="no"?>
<!DOCTYPE svg PUBLIC "-//W3C//DTD SVG 1.1//EN" "http://www.w3.org/Graphics/SVG/1.1/DTD/svg11.dtd">
<svg width="100%" height="100%" viewBox="0 0 40 40" version="1.1" xmlns="http://www.w3.org/2000/svg" xmlns:xlink="http://www.w3.org/1999/xlink" xml:space="preserve" xmlns:serif="http://www.serif.com/" style="fill-rule:evenodd;clip-rule:evenodd;stroke-linejoin:round;stroke-miterlimit:1.41421;">
    <g id="a" transform="matrix(1,0,0,1,0,2)">
        <path d="M26.4,23C25.9,22.3 25.4,21.8 25.4,20.5L25.4,16.3C25.4,14.5 25.5,12.9 24.2,11.6C23.2,10.6 21.4,10.2 20.1,10.2C17.5,10.2 14.6,11.2 14,14.4C13.9,14.7 14.2,14.9 14.4,15L17,15.3C17.2,15.3 17.4,15 17.5,14.8C17.7,13.7 18.6,13.2 19.7,13.2C20.3,13.2 20.9,13.4 21.2,13.9C21.6,14.5 21.5,15.2 21.5,15.9L21.5,16.3C19.9,16.5 17.9,16.6 16.4,17.2C14.7,17.9 13.5,19.4 13.5,21.6C13.5,24.4 15.3,25.8 17.6,25.8C19.5,25.8 20.6,25.3 22.1,23.8C22.6,24.5 22.8,24.9 23.7,25.6C23.9,25.7 24.2,25.7 24.3,25.5C24.8,25 25.8,24.2 26.4,23.7C26.6,23.6 26.5,23.3 26.4,23ZM21,21.8C20.6,22.6 19.9,23 19.1,23C18.1,23 17.4,22.2 17.4,21C17.4,18.7 19.5,18.3 21.4,18.3L21.4,18.9C21.5,20 21.5,20.9 21,21.8Z" style="fill:rgb(34,31,31);fill-rule:nonzero;"/>
    </g>
</svg>
